svg/Tango/status/software-update-urgent.svg

<?xml version="1.0" encoding="UTF-8" standalone="no"?>
<!-- Created with Inkscape (http://www.inkscape.org/) -->
<svg
   xmlns:dc="http://purl.org/dc/elements/1.1/"
   xmlns:cc="http://creativecommons.org/ns#"
   xmlns:rdf="http://www.w3.org/1999/02/22-rdf-syntax-ns#"
   xmlns:svg="http://www.w3.org/2000/svg"
   xmlns="http://www.w3.org/2000/svg"
   xmlns:xlink="http://www.w3.org/1999/xlink"
   xmlns:sodipodi="http://sodipodi.sourceforge.net/DTD/sodipodi-0.dtd"
   xmlns:inkscape="http://www.inkscape.org/namespaces/inkscape"
   width="48"
   height="48"
   id="svg7854"
   sodipodi:version="0.32"
   inkscape:version="0.46"
   version="1.0"
   sodipodi:docbase="/home/jimmac/src/cvs/tango-icon-theme/scalable/status"
   sodipodi:docname="software-update-urgent.svg"
   inkscape:output_extension="org.inkscape.output.svg.inkscape">
  <defs
     id="defs7856">
    <inkscape:perspective
       sodipodi:type="inkscape:persp3d"
       inkscape:vp_x="0 : 24 : 1"
       inkscape:vp_y="0 : 1000 : 0"
       inkscape:vp_z="48 : 24 : 1"
       inkscape:persp3d-origin="24 : 16 : 1"
       id="perspective27" />
    <linearGradient
       inkscape:collect="always"
       id="linearGradient5239">
      <stop
         style="stop-color:#ffffff;stop-opacity:1;"
         offset="0"
         id="stop5241" />
      <stop
         style="stop-color:#ffffff;stop-opacity:0;"
         offset="1"
         id="stop5243" />
    </linearGradient>
    <linearGradient
       inkscape:collect="always"
       id="linearGradient5223">
      <stop
         style="stop-color:#ffffff;stop-opacity:1;"
         offset="0"
         id="stop5225" />
      <stop
         style="stop-color:#ffffff;stop-opacity:0;"
         offset="1"
         id="stop5227" />
    </linearGradient>
    <linearGradient
       id="linearGradient5205">
      <stop
         style="stop-color:#f56e6e;stop-opacity:1;"
         offset="0"
         id="stop5207" />
      <stop
         style="stop-color:#ff2929;stop-opacity:1;"
         offset="1"
         id="stop5209" />
    </linearGradient>
    <filter
       inkscape:collect="always"
       x="-0.10040161"
       width="1.2008032"
       y="-0.90361446"
       height="2.8072289"
       id="filter5201">
      <feGaussianBlur
         inkscape:collect="always"
         stdDeviation="1.7884036"
         id="feGaussianBlur5203" />
    </filter>
    <linearGradient
       inkscape:collect="always"
       xlink:href="#linearGradient5205"
       id="linearGradient5221"
       gradientUnits="userSpaceOnUse"
       x1="29.455839"
       y1="43.94804"
       x2="28.443651"
       y2="15.221828" />
    <linearGradient
       inkscape:collect="always"
       xlink:href="#linearGradient5223"
       id="linearGradient5229"
       x1="24"
       y1="10.61907"
       x2="26.878315"
       y2="70.744072"
       gradientUnits="userSpaceOnUse" />
    <radialGradient
       inkscape:collect="always"
       xlink:href="#linearGradient5239"
       id="radialGradient5245"
       cx="17.124725"
       cy="23.838573"
       fx="17.124725"
       fy="23.838573"
       r="2"
       gradientTransform="matrix(-4.8005117e-7,-15.821789,7.3406859,-5.8748188e-7,-150.99147,303.0063)"
       gradientUnits="userSpaceOnUse" />
  </defs>
  <sodipodi:namedview
     id="base"
     pagecolor="#ffffff"
     bordercolor="#e0e0e0"
     borderopacity="1"
     gridtolerance="10000"
     guidetolerance="10"
     objecttolerance="10"
     inkscape:pageopacity="0.0"
     inkscape:pageshadow="2"
     inkscape:zoom="1"
     inkscape:cx="26.454055"
     inkscape:cy="31.642277"
     inkscape:document-units="px"
     inkscape:current-layer="layer1"
     width="48px"
     height="48px"
     inkscape:showpageshadow="false"
     inkscape:window-width="872"
     inkscape:window-height="814"
     inkscape:window-x="477"
     inkscape:window-y="34"
     showgrid="false" />
  <metadata
     id="metadata7859">
    <rdf:RDF>
      <cc:Work
         rdf:about="">
        <dc:format>image/svg+xml</dc:format>
        <dc:type
           rdf:resource="http://purl.org/dc/dcmitype/StillImage" />
        <dc:creator>
          <cc:Agent>
            <dc:title>Jakub Steiner</dc:title>
          </cc:Agent>
        </dc:creator>
        <dc:source>http://jimmac.musichall.cz</dc:source>
        <cc:license
           rdf:resource="http://creativecommons.org/licenses/publicdomain/" />
      </cc:Work>
      <cc:License
         rdf:about="http://creativecommons.org/licenses/publicdomain/">
        <cc:permits
           rdf:resource="http://creativecommons.org/ns#Reproduction" />
        <cc:permits
           rdf:resource="http://creativecommons.org/ns#Distribution" />
        <cc:permits
           rdf:resource="http://creativecommons.org/ns#DerivativeWorks" />
      </cc:License>
    </rdf:RDF>
  </metadata>
  <g
     inkscape:label="Layer 1"
     inkscape:groupmode="layer"
     id="layer1">
    <rect
       style="opacity:0.50602411;color:#000000;fill:#000000;fill-opacity:1;fill-rule:nonzero;stroke:none;stroke-width:3;stroke-linecap:round;stroke-linejoin:round;marker:none;marker-start:none;marker-mid:none;marker-end:none;stroke-miterlimit:4;stroke-dasharray:none;stroke-dashoffset:0;stroke-opacity:1;visibility:visible;display:inline;overflow:visible;filter:url(#filter5201);enable-background:accumulate"
       id="rect5127"
       width="42.75"
       height="4.75"
       x="2.375"
       y="37.75"
       rx="2.5"
       ry="2.5" />
    <path
       style="opacity:1;color:#000000;fill:url(#linearGradient5221);fill-opacity:1;fill-rule:nonzero;stroke:#a40000;stroke-width:5.00000048;stroke-linecap:round;stroke-linejoin:round;marker:none;marker-start:none;marker-mid:none;marker-end:none;stroke-miterlimit:4;stroke-dasharray:none;stroke-dashoffset:0;stroke-opacity:1;visibility:visible;display:inline;overflow:visible;enable-background:accumulate"
       d="M 41.5,38.500001 L 6.4999954,38.500001 L 23.999998,7.5000006 L 41.5,38.500001 z"
       id="path4547"
       sodipodi:nodetypes="cccc" />
    <path
       sodipodi:type="inkscape:offset"
       inkscape:radius="1.0077822"
       inkscape:original="M 24 7.5 L 6.5 38.5 L 41.5 38.5 L 24 7.5 z "
       xlink:href="#path4547"
       style="opacity:0.59638554;color:#000000;fill:none;fill-opacity:1;fill-rule:nonzero;stroke:url(#linearGradient5229);stroke-width:1;stroke-linecap:round;stroke-linejoin:round;marker:none;marker-start:none;marker-mid:none;marker-end:none;stroke-miterlimit:4;stroke-dasharray:none;stroke-dashoffset:0;stroke-opacity:1;visibility:visible;display:inline;overflow:visible;enable-background:accumulate"
       id="path5219"
       inkscape:href="#path4547"
       d="M 23.84375,6.5 C 23.540505,6.5484647 23.275899,6.7325383 23.125,7 L 5.625,38 C 5.4507626,38.31141 5.4541778,38.691739 5.6339793,38.99997 C 5.8137809,39.308202 6.1431632,39.498383 6.5,39.5 L 41.5,39.5 C 41.856837,39.498383 42.186219,39.308202 42.366021,38.99997 C 42.545822,38.691739 42.549237,38.31141 42.375,38 L 24.875,7 C 24.668678,6.6350934 24.258031,6.4359916 23.84375,6.5 z" />
    <g
       id="g5235"
       style="fill-opacity:1.0;fill:url(#radialGradient5245)">
      <path
         transform="matrix(0.6519564,0,0,0.6519564,9.1495473,10.638023)"
         d="M 25.721009,31.294601 A 3.0052037,3.0052037 0 1 1 19.710601,31.294601 A 3.0052037,3.0052037 0 1 1 25.721009,31.294601 z"
         sodipodi:ry="3.0052037"
         sodipodi:rx="3.0052037"
         sodipodi:cy="31.294601"
         sodipodi:cx="22.715805"
         id="path5231"
         style="opacity:1;color:#000000;fill:url(#radialGradient5245);fill-opacity:1.0;fill-rule:nonzero;stroke:none;stroke-width:1;stroke-linecap:round;stroke-linejoin:round;marker:none;marker-start:none;marker-mid:none;marker-end:none;stroke-miterlimit:4;stroke-dasharray:none;stroke-dashoffset:0;stroke-opacity:1;visibility:visible;display:inline;overflow:visible;enable-background:accumulate"
         sodipodi:type="arc" />
      <path
         id="path5233"
         d="M 23,28 L 25,28 L 26,19 L 22,19 L 23,28 z"
         style="opacity:1;color:#000000;fill:url(#radialGradient5245);fill-opacity:1.0;fill-rule:nonzero;stroke:none;stroke-width:1;stroke-linecap:round;stroke-linejoin:round;marker:none;marker-start:none;marker-mid:none;marker-end:none;stroke-miterlimit:4;stroke-dasharray:none;stroke-dashoffset:0;stroke-opacity:1;visibility:visible;display:inline;overflow:visible;enable-background:accumulate" />
    </g>
  </g>
</svg>

<svg xmlns="http://www.w3.org/2000/svg" xmlns:xlink="http://www.w3.org/1999/xlink" viewBox="0 0 48 48"><defs><filter x="-.1" width="1.201" y="-.904" height="2.807" id="1"><feGaussianBlur stdDeviation="1.7884"/></filter><linearGradient xlink:href="#0" id="3" x1="24" y1="10.619" x2="26.878" y2="70.74" gradientUnits="userSpaceOnUse"/><linearGradient id="2" gradientUnits="userSpaceOnUse" x1="29.456" y1="43.948" x2="28.444" y2="15.222"><stop stop-color="#f56e6e"/><stop offset="1" stop-color="#ff2929"/></linearGradient><linearGradient id="0"><stop stop-color="#fff"/><stop offset="1" stop-color="#fff" stop-opacity="0"/></linearGradient><radialGradient xlink:href="#0" id="4" cx="17.12" cy="23.839" r="2" gradientTransform="matrix(0-15.82179 7.34069 0-150.99 303.01)" gradientUnits="userSpaceOnUse"/></defs><g color="#000"><rect width="42.75" height="4.75" x="2.375" y="37.75" rx="2.5" ry="2.375" opacity=".506" filter="url(#1)"/><g stroke-linejoin="round" stroke-linecap="round"><path d="m41.5 38.5h-35l17.5-31 17.5 31z" stroke-width="5" fill="url(#2)" stroke="#a40000"/><path d="m23.844 6.5c-.303.048-.568.233-.719.5l-17.5 31c-.174.311-.171.692.009 1 .18.308.509.498.866.5h35c.357-.002.686-.192.866-.5.18-.308.183-.689.009-1l-17.5-31c-.206-.365-.617-.564-1.031-.5z" opacity=".596" fill="none" stroke="url(#3)"/></g><g fill="url(#4)"><path transform="matrix(.65196 0 0 .65196 9.15 10.638)" d="M25.721009 31.2946A3.0052 3.0052 0 1 1 19.710601 31.2946 3.0052 3.0052 0 1 1 25.721009 31.2946"/><path d="m23 28h2l1-9h-4l1 9"/></g></g></svg>
